X:181
T:60 Bougies
C:Laurence Beaudry
N: Laurence Beaudry, Reproduced with permission
Z:robin.beech@mcgill.ca
R:jig
M:6/8
L:1/8
K:A 
|: cdc cAc | cdc dBB | ded dBd | gfe c3 |
efg aee | dcB g2e |1 B^df bag | af^d e3 :|2 dcB g2f | dcB A3 ||
agf cfg | agf dfg | agf bfg | agf gBc |
d3 BcB | GBG FGF | EGB edB | cdc c2e |
agf cfg | agf dfg | agf bfg | agf gBc |
ded GAB | cdc FGA | BcB GFE | [C6A6] |]
